!!!!SEGMENT: pl-kk--kk-i-3--061-001_anonim--officium-pro-feria-quinta-kyrie.krn
!!!cenid: 15xx:721
!!!COM: Anonim
!!!COM-rismID:
!!!CDT:
!!!CNT:
!!!OPR: Officium pro Feria Quinta
!!!OTL: Kyrie
!!!OMV: 001
!!!PDT:
!!!AGN:
!!!SMS-siglum: PL-Kk
!!!SMS-shelfmark: Kk.I.3
!!!SMS-shelfwork: 061-001 M
!!!SMS-variant:
!!!SMS-altvar:
!!!NIFC-rismSourceID: 1001145493
!!!NIFC-islandoraID: pl-kk:1170
!!!URL-pdf-islandora: https://repozytorium.nifc.pl/islandora/object/pl-kk%3A1170/datastream/PDF/view
!!!URL-scan: https://polish.musicsources.pl/pl/lokalizacje/galeria/rekopisy/5919 @EN{Scan on Polish Music Herritage in Open Access Website} @PL{Skany w portalu Dziedzictwo Muzyki Polskiej w otwartym dostępie}
!!!ONB-nifc: UWAGA: Discantus (s. 163r-163v, skan 0165-0166), Tenor (s. 124r, skan 0296), Bassus (brak – fragmentarycznie zachowana cz. następna Et in terra)
!!!AIN: 1 bass 1 empty 1 tenor
!!!key:
**kern	**kern	**text	**kern	**text
*part3	*part2	*part2	*part1	*part1
*staff3	*staff2	*staff2	*staff1	*staff1
*Ibass	*Itenor	*	*Iempty	*
*I"Bassus	*I"Tenor	*	*I"Discantus	*
*I'B	*I'T	*	*I'S	*
*ICvox	*ICvox	*	*ICvox	*
*IG	*	*	*	*
*clefF4	*clefC4	*	*clefC3	*
*k[]	*k[]	*	*k[]	*
*C:	*C:	*	*C:	*
*M2/1	*M2/1	*	*M2/1	*
*met(C|)	*met(C|)	*	*met(C|)	*
=1-	=1-	=1-	=1-	=1-
0ryy	1G	Ky-	1g	Ky-
.	1A	-ri-	1f	-ri-
=2-	=2-	=2-	=2-	=2-
*	*lig	*	*	*
0ryy	1B	-e	2g\	-e
.	.	.	1d	e-
.	1G	.	.	.
.	.	.	2e\	-le-
*	*Xlig	*	*	*
=3-	=3-	=3-	=3-	=3-
0ryy	0d	e-	1f	-y-
.	.	.	1d,	-ſon
=4-	=4-	=4-	=4-	=4-
0ryy	1c	.	2.e\	ky-
.	.	.	4f\	-ri-
.	1B	.	1g	-e
=5-	=5-	=5-	=5-	=5-
0ryy	1A	.	1f	e-
.	1G	.	2g\	-ley-
*	*	*	*custos:f	*
.	.	.	2e/	-ſon
!	!	!	!LO:LB:g=original	!
=6-	=6-	=6-	=6-	=6-
*	*	*	*	*ij
0ryy	1A	.	1f	ky-
*	*lig	*	*	*
.	1B	.	2d\	-ri-
.	.	.	2g\	-e
=7-	=7-	=7-	=7-	=7-
0ryy	1A	.	2f\	e-
.	.	.	1g	-le-
*	*Xlig	*	*	*
.	1A	-ley-	.	.
.	.	.	2f\	-y-
=8-	=8-	=8-	=8-	=8-
0ryy	0G;	-ſon.	0g;	-ſon
!	!LO:LB:g=original	!	!	!
*	*	*	*	*Xij
=9-	=9-	=9-	=9-	=9-
*	*	*	*met(c|)	*
0ryy	1G	CHri-	2r	.
.	.	.	1g	Chri-
.	1G	-ſte	.	.
.	.	.	2d/	-ſte
=10-	=10-	=10-	=10-	=10-
0ryy	1E	e-	2.g\	e-
*	*	*	*custos:e	*
.	.	.	4f\	.
!	!	!	!LO:LB:g=original	!
.	1G	.	4e\	.
.	.	.	4d\	.
.	.	.	2e\	.
=11-	=11-	=11-	=11-	=11-
0ryy	1F	.	2f\	.
.	.	.	1d	.
.	1E	.	.	.
.	.	.	2c/	-ley-
=12-	=12-	=12-	=12-	=12-
0ryy	1F	.	0d	-ſon
.	0D	.	.	.
=13-	=13-	=13-	=13-	=13-
0ryy	.	.	2r	.
.	.	.	2B/	e-
*	*lig	*	*	*
.	1F	.	1A	-le-
=14-	=14-	=14-	=14-	=14-
0ryy	1E	.	0A	-y-
*	*Xlig	*	*	*
.	1F	-ley-	.	.
=15-	=15-	=15-	=15-	=15-
0ryy	0G;	-ſon.	0B;	-ſon.
!	!LO:LB:g=original	!	!LO:LB:g=original	!
=16-	=16-	=16-	=16-	=16-
0ryy	1G	Ky-	1g	Ky-
.	1A	-ri-	1f	-ri-
=17-	=17-	=17-	=17-	=17-
*	*lig	*	*	*
0ryy	1B	-e	2d\	-e
.	.	.	2.g\	e-
.	1G	.	.	.
.	.	.	4f\	.
.	.	.	2.d/	.
*	*Xlig	*	*	*
=18-	=18-	=18-	=18-	=18-
0ryy	0d	e-	.	.
.	.	.	4c/	.
.	.	.	2B/	.
.	.	.	1A	-le-
=19-	=19-	=19-	=19-	=19-
*	*lig	*	*	*
0ryy	1c	.	2A/	-y-
.	.	.	1G	-ſon
.	1B	.	.	.
.	.	.	1g\	e-
*	*Xlig	*	*	*
=20-	=20-	=20-	=20-	=20-
*	*lig	*	*	*
0ryy	1A	.	.	.
*	*	*	*custos:g	*
.	.	.	2f\	-ley-
!	!	!	!LO:LB:g=original	!
.	1G	.	2g\	-ſon
*	*	*	*	*ij
.	.	.	1e\	ky-
*	*Xlig	*	*	*
=21-	=21-	=21-	=21-	=21-
0ryy	1A	.	.	.
.	.	.	2d\	-ri-
*	*lig	*	*	*
.	1B	.	2e\	-e
.	.	.	2d\	e-
=22-	=22-	=22-	=22-	=22-
0ryy	1A	.	0d	-ley-
*	*Xlig	*	*	*
.	1A	-ley-	.	.
=23-	=23-	=23-	=23-	=23-
0ryy	0G;	-ſon.	0d;	-ſon
!	!LO:LB:g=original	!	!	!
*	*	*	*	*Xij
=24-	=24-	=24-	=24-	=24-
*	*	*	*met(c|)	*
0ryy	1G	Ky-	1g	Ky-
.	1A	-ri-	2e\	-ri-
.	.	.	2f\	-e
=25-	=25-	=25-	=25-	=25-
*	*lig	*	*	*
0ryy	1B	-e	1d	e-
*	*	*	*custos:f	*
.	1G	.	1g	.
!	!	!	!LO:LB:g=original	!
*	*Xlig	*	*	*
=26-	=26-	=26-	=26-	=26-
0ryy	0d	e-	2.f\	.
.	.	.	4e\	.
.	.	.	1d	.
=27-	=27-	=27-	=27-	=27-
0ryy	1c	.	2g\	.
.	.	.	2e\	.
.	1B	.	2f\	.
.	.	.	1d\	.
=28-	=28-	=28-	=28-	=28-
0ryy	1A	.	.	.
.	.	.	1f	.
.	0G	.	.	.
.	.	.	2.g\	.
=29-	=29-	=29-	=29-	=29-
0ryy	.	.	.	.
.	.	.	4f\	.
.	.	.	4e\	.
.	.	.	4d\	.
*	*lig	*	*	*
.	1E	.	1e	.
=30-	=30-	=30-	=30-	=30-
0ryy	1G	.	4d/	.
.	.	.	4c/	-ley-
.	.	.	2d\	-ſon
!	!	!	!LO:N:vis=1	!
*	*Xlig	*	*	*
*	*custos:E	*	*custos:d	*
.	1F	.	2r	.
!	!LO:LB:g=original	!	!LO:PB:g=original	!
.	.	.	2d\	.
=31-	=31-	=31-	=31-	=31-
*	*lig	*	*	*
0ryy	1E	.	2e\	.
.	.	.	2c/	.
.	1F	.	1d	.
*	*Xlig	*	*	*
=32-	=32-	=32-	=32-	=32-
0ryy	0D	.	0f	.
=33-	=33-	=33-	=33-	=33-
*	*lig	*	*	*
0ryy	1F	.	2f\	.
.	.	.	1d	.
.	1E	.	.	.
.	.	.	2c/	.
*	*Xlig	*	*	*
=34-	=34-	=34-	=34-	=34-
0ryy	1F	-ley-	1.d	.
.	0.G;	-ſon.	.	.
.	.	.	2d\	.
=35-	=35-	=35-	=35-	=35-
0ryy	.	.	0g	.
=-	=-	=-	=-	=-
*-	*-	*-	*-	*-
!!!system-decoration: [(s1,s2,s3)]
!!!ENC: Filip Voros
!!!END: 2022-01-20
!!!ENC: Julita Ruszuk
!!!END: 2022-01-20
